X:74
T:Golden Sunset 
R:
C:Bruce Osborne - 2003
Z:abc by bosborne@kos.net
M:3/4
L:1/8
K:Eb
GF|EB, G,B, EG|c2 B2 (3EFG|c2 B2 e2|d4 fg|\
ag ag fe|d3 e dc|B=A Bc F_A|G4 GF|\
EB, G,B, EG|c2 B2 (3EFG|c2 B2 e2|d4 fg|\
ag ag fe|d3 e dc|BF DF AD|E4||\
Bc|B2 G2 B,C|B,2 G,2 EF|GF GE Gc|B4 FG|\
AG AB dc|Bc BF EF|GF GF EC|B,4 Bc|\
B2 G2 B,C|B,2 G,2 EF|GF GE Gc|B4 FG|\
AG AB dc|Bc BF EF|GF GE B,D|E4||
